X:109
T:Lamshaw's Fancy
Z:Jack Campin, http://www.campin.me.uk/
S:Northumbrian Minstrelsy
M:C
L:1/8
K:G
D|DGBG dGBG|EAcA        eAcA|DGBG        dGBG|B/c/d Ac BGG:|
f|gdBd GdBd|g/f/e/d/ ce Aece|g/f/e/d/ Bd GdBd|e/f/g dc BGG:|

